X:1
T:Sonata I 
T:Composer: Johann Matheson Transcribed by M. Marinier Source: IMSLP 
C:Johann Matheson
%%score 1 2
L:1/8
Q:1/4=55
M:4/4
K:C
V:1 treble nm="Alto 1" snm="A1"
V:2 treble nm="Alto 2" snm="A2"
V:1
"^Largo\n" z4 z Ade | f4- fg/f/ g/f/e/d/ | e3 e fafa | d_bag fgab | e/g/f/e/ Pe>d ddad' | %5
 _b4- b/b/a/g/ a2- | a/a/g/f/ g3 cfa | gegc' d_bca | _BgAf GABc | de f2- f/e/f/g/ e2- | %10
 e/d/e/f/ d/e/f/g/ a/g/a/_b/ g/f/g/a/ | _b/a/b/c'/ a/g/a/b/ a/g/a/b/ Pg>f | f2 z2 z cec | %13
 d G3- Gdfd | ee' Pd'>c' be^f^g | aA B^c/d/ cafa | d4- da _b/a/b/a/ | %17
 _bg a/g/a/g/ a/c'/b/a/ g/b/a/g/ | f/a/g/a/ _b/a/g/f/ e2 z2 | z Aef g2- gf/e/ | %20
 f2- f/a/g/f/ ef Pe>d | da Pg>a !fermata!a4 ||[M:3/4][Q:1/4=120]"^Allegro" z2 a2 a2 | _b2 f2 g2 | %24
 a2 e2 f2 | g2 d2 e2 | f3 e fg | a3 a _ba | g3 g ag | f3 f gf | e3 e a2 | a2 P^g3 a | a2 e3 e | %33
 fe fg fe | d2 d2 d2 | gf ga gf | e2 c2 f2 | e2 Pd3 c | c2 g2 g2 | a2 e2 f2 | g2 d2 e2 | f2 d2 g2 | %42
 e2 c2 g2 | f2 d2 g2 | e2 c'2 c'2 | d'2 a2 _b2 | c'2 g2 a2 | P_b3 a bc' | a4 z2 | fg fg fg | %50
 ef ef ef | de de de | ^c2 a2 a2 | P^f6 | z2 g2 g2 | Pe6 | f2 c'2 c'2 | d'2 c'2 _b2 | c'2 a2 f2 | %59
 _b2 g2 c'2 | a2 f2 d2 | _b2 g2 c'2 | a2 z2 z2 | z2 d2 d2 | f2 c2 d2 | e2 B2 c2 | d2 A2 B2 | %67
 c2 c'2 a2 | ^f2 d'2 a2 | _b2 ^f2 g2- | ga Pa3 g | g2 d2 d2 | g6- | g2 g2 g2 | c'6- | c'3 g a2- | %76
 a_b Pg3 f | f2 a2 _b2 | c'2 g2 a2 | _bc' bc' bc' | a_b ab ab | ga ga ga | fg fg fg | ef ef ef | %84
 d2 _b2 a2 | g2 e2 f2 | e2 ^c2 f2 | e2 A2 f2 | e2 ^c2 f2 | e6 | z2 d'2 a2 | _b6 | z2 c'2 g2 | %93
 a3 a _ba | g2 g2 f2 | e3 f ge | a2 f2 d2- | de Pe3 d | d3 a _ba | g2 g2 f2 | e3 f ge | a2 f2 d2- | %102
 de Pe3 d | !fermata!d6 ||[M:3/2][Q:1/2=66]"^Adagio" a12 | a4 Pg6 f2 | e8 P^f4 | g4 _b8- | %108
 b4 Pa6 g2 | ^f4 g4 Pa4 | _b4 Pc'4 d'4 | c'2 _b2 Pa6 g2 | g4 G4 _e4- | e4 F4 d4- | d4 c4 d2 _e2 | %115
 A4 f4 P_e4 | d4 d'4 c'4 | _b12- | b8 a4- | a4 Pg6 g2 | g4 c4 a4- | a2 g2 Pg6 f2 | f6 A2 _B4 | %123
 A4 PG8 | !fermata!F12 |:[M:6/8]"^Gigue"[Q:1/4=120] Adf eag | f3 P^c3 | Adf eag | fga _bab | %129
 efg aga | def gag | gfe fgf | efe fed | e2 z f2 z | e2 z f2 z | Pe6 :: z6 | eae fad | P^c3 d3 | %139
 eae f_bf | gc'g ac'f | Pe3 f3 | gc'g ac'f | _b2 a g2 f | e2 d c2 _B | A3 _B3 | c3 d3 | e3 fga | %148
 efg Pe3 | f2 f efd | cfc def | eae fga | gc'g a_bc' | ga_b Pg3 | f3 a2 g | fed g2 f | ed^c g2 f | %157
 e3 afg | afd gef | ge^c dAd | eAe fdf | geg afg | ade Pe3 | d2 z e2 z | f2 z Pe2 z | d6 :| %166
V:2
 z afa d4- | dd_Bd G4 | ccAc Ffdf | _Bgfe defg | ^c/e/d Pc>d d2 z2 | z Gdg c2- c/c/_B/A/ | %6
 _B2- B/B/A/G/ AAcf | eceg fgef | decd _BAGA | _BcdA B2- B/A/B/c/ | %10
 F2- F/c/d/e/ f/e/f/g/ e/d/e/f/ | g/f/g/a/ f/e/f/g/ f/e/f/g/ Pe>f | fc'af g c3- | cg_bg a d3- | %14
 dA/c'/ Pb>a ^g e2 d | c a2 ^g a2 dc | _BdBd Gd g/f/g/f/ | ge f/e/f/e/ f/a/g/f/ e/g/f/e/ | %18
 d/f/e/f/ g/f/e/d/ ^cAde |!mf! f4- fe/d/ e2- | ed/^c/ d/f/e/d/ cd c>d | dc T_B2 !fermata!A4 || %22
[M:3/4] z6 | z6 | z6 | z6 | z2 d2 d2 | f2 c2 d2 | e2 B2 c2 | d2 A2 B2 | c3 B cd | c>B PB3 A | %32
 A2 ^c3 c | d^c de dc | B2 B2 B2 | ed ef ed | c2 e2 d2 | c2 PB3 c | c2 e2 e2 | f2 c2 d2 | %40
 e2 B2 c2 | d2 B2 G2 | c2 e3 e | d2 B2 G2 | cd cd cd | _Bc Bc Bc | A_B AB AB | GA GA GA | %48
 F2 f2 g2 | a2 e2 f2 | g2 d2 e2 | f2 c2 d2 | e2 ^c4 | z2 d2 d2 | B6 | z2 c2 c2 | A2 a2 a2 | %57
 _b2 a2 g2 | a2 f2 d2 | g2 e2 c2 | f2 a2 f2 | g2 e2 c2 | f2 A2 A2 | d^c de fg | a_b ab ab | %65
 ga ga ga | fg fg fg | e3 e c2 | d2 ^f2 d2 | g2 d2 _e2 | c2 d4 | G6 | z2 G2 G2 | c6- | c2 c2 c2 | %75
 f2 e2 f2 | _B2 c4 | F2 f4 | e6 | d2 a2 _b2 | c'2 f2 g2 | _b2 f2 g2 | a_b ab ab | ga ga ga | %84
 f2 g2 f2 | e2 ^c2 d2 | A4 d2 | ^c4 d2 | A2 A2 d2 | ^c2 a2 e2 | f6 | z2 g2 d2 | e6 | f3 f gf | %94
 e2 ^c2 d2 | A6 | f2 d2 _b2 | d2 P^c3 d | d3 f gf | e2 ^c2 d2 | A6 | f2 d2 _b2 | d2 P^c3 d | %103
 !fermata!d6 ||[M:3/2] f12 | B12 | c4 _B4 A4 | G4 g8 | ^c12 | d4 e4 ^f4 | g4 a4 _b4 | %111
 a2 g2 P^f6 g2 | g8 c4 | f8 _B4 | _e8 c4 | f8 A4 | _B4 _b4 a4 | g4 d4 g4 | e4 c4 f4 | _B8 =B4 | %120
 c8 f4 | _B4 c8 | d6 d2 g2 d2 | e2 f2 Pe8 | !fermata!f12 |:[M:6/8] z6 | Adf eag | f3 P^c3 | %128
 def gfg | cde fef | fed efe | ed^c ded | ^cdc def | ^c2 z d2 z | ^c2 z d2 z | ^c6 :: eae fad | %137
 P^c3 d3 | eae fad | ^c3 d3 | e3 f3 | gc'g ac'f | e3 f3 | g2 a _b2 a | g2 f e2 d | cfc def | %146
 eae fga | gc'g a_bc' | ga_b Pg3 | fed cd_B | A2 z _B2 z | c3 d3 | e3 fga | efg Pe3 | f3 f2 e | %155
 def e2 d | ^cBA e2 d | ^cBA fde | fdA e^cd | e^cA F2 z | A2 z dAd | eAe fde | fAd P^c3 | %163
 d2 z ^c2 z | d2 z P^c2 z | d2 z4 :| %166

